X: 1866
T: Taştı Rahmet Deryâsı
C: (Anonim)
O: Turkey
F: http://compmusic.upf.edu/node/140
N: huzi--ilahi--duyek--tasti_rahmet--
N: makam= huzi
N: form= ilahi
N: usul= duyek = 8/4
M: 8/4
L: 1/16
K: C _2/4B   
Q: 1/4=144
%%MIDI tuningsystem comma53
c3B c2 d2 d8  | A6 G2 d4 e2 z2  | fe fg e3d d2 cB e2 dc  | 
w:  İl *  lâl *  lah   |  hû  *  hû  hû    |  Taş *  *  *  tı  *  rah *  *  met   | 
c3d cB2A A6 G2  | d2 cB c2 d2 d8  | A6 G2 d4 e2 z2  | \
w:  der *  yâ *  *  sı    |  İl *  *  lâl *  lah   |  hû  *  hû  hû    | 
fe fg e3d d2 cB e2 dc  | 
w:  Gark_ *  *  *  ol *  du  *  *  cüm  | 
c3d cB2A A6 G2  | d2 cB c2 d2 d8  | A6 G2 d4 e2 z2  | \
w:  le  *  â *  *  sî    |  İl *  *  lâl *  lah   |  hû  *  hû  hû    | 
fe fg e3d d2 cB e2 dc  | 
w:  Dört  *  *  *  ki *  tâ *  *  bın   | 
c3d cB2A A6 G2  | d2 cB c2 d2 d8  | A6 G2 d4 e2 z2  | \
w:  mâ *  nâ *  *  sı    |  İl *  *  lâl *  lah   |  hû  *  hû  hû    | 
fe fg e3d d2 cB e2 dc  | 
w:  Lâ  *  *  *  i *  lâ *  *  he   | 
c3d cB2A A6 G2  | c3B c2 d2 d8  | A6 G2 d4 e2 z2  | \
w:  il *  lal *  *  lah    |  İl *  lâl *  lah   |  hû  *  hû  hû    | 
fe fg e3d d2 cB e2 dc  | 
w:  Taş *  *  *  tı  *  rah *  *  met   | 
c3d cB2A A6 G2  | d2 cB c2 d2 d8  | A6 G2 d4 e2 z2  | \
w:  der *  yâ *  *  sı    |  İl *  *  lâl *  lah   |  hû  *  hû  hû    | 
fe fg e3d d2 cB e2 dc  | 
w:  Gark_ *  *  *  ol *  du  *  *  cüm  | 
c3d cB2A A6 G2  | d2 cB c2 d2 d8  | A6 G2 d4 e2 z2  | \
w:  le  *  â *  *  sî    |  İl *  *  lâl *  lah   |  hû  *  hû  hû    | 
fe fg e3d d2 cB e2 dc  | 
w:  Dört  *  *  *  ki *  tâ *  *  bın   | 
c3d cB2A A6 G2  | d2 cB c2 d2 d8  | A6 G2 d4 e2 z2  | \
w:  mâ *  nâ *  *  sı    |  İl *  *  lâl *  lah   |  hû  *  hû  hû    | 
fe fg e3d d2 cB e2 dc  | 
w:  Lâ  *  *  *  i *  lâ *  *  he   | 
c3d cB2A A6 z2  | |


